X: 1
T: I Ne'er Shall Wean Her
R: jig
M: 6/8
L: 1/8
K: Ador
|:G|EGG GED|EGG c2B|AcA AGA|cde ecd|
cde g2a|ged c2d|eaa e2d|cAA A2 :|
|:d|egg ged|egg g2d|eaa aga|baa a2g|
cde g2a|ged c2d|eaa e2d|cAA A2 :|


Tune 803	Setting 24321

